!!!COM: Palestrina, Giovanni Perluigi da
!!!OPR: Sine nomine (1591)
!!!OTL: Gloria
**kern	**kern	**kern	**kern	**kern	**kern
*Ibass	*Itenor	*Itenor	*Icalto	*Icant	*Icant
!Bassus	!Tenor 2	!Tenor 1	!Altus	!Cantus 2	!Cantus 1
*clefF4	*clefGv2	*clefGv2	*clefG2	*clefG2	*clefG2
*k[b-]	*k[b-]	*k[b-]	*k[b-]	*k[b-]	*k[b-]
*G:dor	*G:dor	*G:dor	*G:dor	*G:dor	*G:dor
*M4/2	*M4/2	*M4/2	*M4/2	*M4/2	*M4/2
=1	=1	=1	=1	=1	=1
1D	0r	1r	0r	0r	0r
2D	.	1D	.	.	.
[2F	.	.	.	.	.
=2	=2	=2	=2	=2	=2
4F]	0A	2D	0r	0r	0r
4E	.	.	.	.	.
1D	.	1F	.	.	.
4C	.	4E	.	.	.
4BB	.	4D	.	.	.
=3	=3	=3	=3	=3	=3
2C#	1A	2E	1r	0r	0r
2D	.	2F	.	.	.
4GG	2B-	1G	1d	.	.
4AA	.	.	.	.	.
4BB-	2B-	.	.	.	.
4C	.	.	.	.	.
=4	=4	=4	=4	=4	=4
0D	0A	2.F	2d	1r	1d
.	.	.	2.f	.	.
.	.	4E	.	.	.
.	.	4D	.	[1a	2d
.	.	4C	4e	.	.
.	.	4D	[2d	.	[2f
.	.	4E	.	.	.
=5	=5	=5	=5	=5	=5
0r	0r	4F	2d]	1a]	2f]
.	.	4G	.	.	.
.	.	1A	4c	.	4e
.	.	.	4B	.	4d
.	.	.	2c#	1a	2e
.	.	2D	2d	.	2f
=6	=6	=6	=6	=6	=6
0r	0r	2d	4G	2b-	1.g
.	.	.	4A	.	.
.	.	2d	4B-	2b-	.
.	.	.	4c	.	.
.	.	1D	2d	2a	.
.	.	.	2d	2a	2f
=7	=7	=7	=7	=7	=7
0r	1r	2r	2G	2.g	2.b-
.	.	1d	2G	.	.
.	.	.	.	4g	4b-
.	2r	.	1A	2e	[1a
.	[2A	2c#	.	2e	.
=8	=8	=8	=8	=8	=8
1.D	2A]	2d	0r	2f	0a]
.	2F	2A	.	1f	.
.	2D	1A	.	.	.
2C#	2E	.	.	[2e	.
=9	=9	=9	=9	=9	=9
2D	2.F	0A	0r	4e]	1r
.	.	.	.	4d	.
2D	.	.	.	1d	.
.	8E	.	.	.	.
.	8D	.	.	.	.
1AA	1E	.	.	.	1a
.	.	.	.	2c#	.
=10	=10	=10	=10	=10	=10
2.GG	1G	2r	2r	1d	2b-
.	.	1G	1d	.	1b-
4AA	.	.	.	.	.
4BB-	2D	.	.	2.dd	.
4C	.	.	.	.	.
2D	2A	2F#	2d	.	[2a
.	.	.	.	4dd	.
=11	=11	=11	=11	=11	=11
1GG	2B-	2G	2d	2b-	4a]
.	.	.	.	.	4g
.	2d	2G	2B-	2g	1g
1r	1d	1D	1A	1a	.
.	.	.	.	.	2f#
=12	=12	=12	=12	=12	=12
1r	2.d	1G	1G	2b-	1g
.	.	.	.	2.dd	.
.	4c	.	.	.	.
1G	4B-	1r	1d	.	2r
.	4A	.	.	4cc	.
.	2G	.	.	2b-	2g
=13	=13	=13	=13	=13	=13
1F#	1D	2r	1.d	1a	1a
.	.	2D	.	.	.
1G	1r	4G	.	1g	1b-
.	.	4A	.	.	.
.	.	4B-	2G	.	.
.	.	4c	.	.	.
=14	=14	=14	=14	=14	=14
0D	2r	2d	2A	4f	1a
.	.	.	.	4g	.
.	1d	2D	1f	4a	.
.	.	.	.	4b-	.
.	.	2A	.	1a	2r
.	2d	[2A	2f	.	[2a
=15	=15	=15	=15	=15	=15
0r	1.c	2A]	1e	0r	2a]
.	.	2A	.	.	2a
.	.	2F	1f	.	1a
.	2c	2F	.	.	.
=16	=16	=16	=16	=16	=16
1r	1B-	1G	1d	1r	2g
.	.	.	.	.	2g
2r	2A	1D	[1d	2r	2.f
[2D	[2A	.	.	[2a	.
.	.	.	.	.	4e
=17	=17	=17	=17	=17	=17
2D]	2A]	2r	0d]	2a]	2d
2D	2A	1D	.	2a	1dd
1BB-	1B-	.	.	2g	.
.	.	2D	.	2f	2dd
=18	=18	=18	=18	=18	=18
1C	1G	1E	2r	1e	1cc
.	.	.	1g	.	.
1GG	2.B-	1G	.	[1d	1b-
.	.	.	2g	.	.
.	4c	.	.	.	.
=19	=19	=19	=19	=19	=19
2r	2d	1D	2f	2d]	1a
2D	2A	.	2d	2f	.
2C	2c	1r	2e-	2g	2r
2BB-	2d	.	2d	[2b-	2f
=20	=20	=20	=20	=20	=20
1E-	1G	0r	2B-	4b-]	2g
.	.	.	.	4a	.
.	.	.	2c	1g	2g
1D	1A	.	2d	.	2dd
.	.	.	2d	2f#	2dd
=21	=21	=21	=21	=21	=21
1GG	2G	2r	1d	1g	2b-
.	1G	1B-	.	.	1dd
2r	.	.	2r	2r	.
[2BB-	2F	2B-	[2d	[2dd	2dd
=22	=22	=22	=22	=22	=22
2BB-]	1D	0B-	2d]	2dd]	2.b-
2BB-	.	.	2f	2dd	.
.	.	.	.	.	4cc
1BB-	2.F	.	1f	1b-	1dd
.	4G	.	.	.	.
=23	=23	=23	=23	=23	=23
1.F	1A	1c	1.f	2.a	2.cc
.	.	.	.	4b-	4b-
.	1r	1F	.	2cc	2a
2BB-	.	.	2f	2dd	2b-
=24	=24	=24	=24	=24	=24
2F	0r	2A	2f	2cc	2a
2G	.	2B-	1d	2b-	2g
2.D	.	2d	.	1a	4f
.	.	.	.	.	4d
.	.	[2A	2d	.	4f
4E	.	.	.	.	4g
=25	=25	=25	=25	=25	=25
1F	2r	2A]	1c	2r	2a
.	1F	2A	.	1a	1cc
1r	.	1c	1f	.	.
.	2F	.	.	2a	2cc
=26	=26	=26	=26	=26	=26
0r	1.c	1C	2.e	2.g	1.cc
.	.	.	4f	4f	.
.	.	1r	2g	2e	.
.	2F	.	2f	2a	2cc
=27	=27	=27	=27	=27	=27
0r	2c	1r	2e	2g	2cc
.	2d	.	2d	2f	2b-
.	2A	2r	2d	2e	1a
.	2A	[2A	2c#	2e	.
=28	=28	=28	=28	=28	=28
1r	0D	4A]	1d	2f	1a
.	.	4A	.	.	.
.	.	2A	.	2.d	.
2r	.	2B-	1r	.	2.f
.	.	.	.	4d	.
[2D	.	4A	.	2d	.
.	.	4G	.	.	4e
=29	=29	=29	=29	=29	=29
4D]	0r	2F	0r	2.f	1d
4D	.	.	.	.	.
2D	.	2B-	.	.	.
.	.	.	.	8e	.
.	.	.	.	8d	.
2.F	.	1A	.	2c	1r
.	.	.	.	[2f	.
8E	.	.	.	.	.
8D	.	.	.	.	.
=30	=30	=30	=30	=30	=30
2C	1r	1c	0r	2f]	2r
2C	.	.	.	1e-	1g
2G	2r	2.B-	.	.	.
2G	[2G	.	.	[2d	2g
.	.	4A	.	.	.
=31	=31	=31	=31	=31	=31
1E-	2G]	2G	1r	2d]	2b-
.	2G	2C	.	2c	4a
.	.	.	.	.	4g
[1D	2B-	1r	2r	1d	2.f
.	4A	.	[2d	.	.
.	4G	.	.	.	4g
=32	=32	=32	=32	=32	=32
1D]	2.F	0r	2d]	0r	1a
.	.	.	2d	.	.
.	4G	.	.	.	.
1r	1A	.	2f	.	2a
.	.	.	4e	.	4g
.	.	.	4d	.	4f
=33	=33	=33	=33	=33	=33
0r	2A	0r	2c	1r	2e
.	2B-	.	2d	.	2g
.	2c	.	2e	2r	2g
.	2d	.	[2d	[2a	2f
=34	=34	=34	=34	=34	=34
0r	1A	2r	2d]	2a]	1e
.	.	1A	2c	2a	.
.	1r	.	1e	2.cc	2r
.	.	2A	.	.	[2e
.	.	.	.	8b	.
.	.	.	.	8a	.
=35	=35	=35	=35	=35	=35
0r	0r	2.c	2r	2g	2e]
.	.	.	2c	2a	2e
.	.	8B-	.	.	.
.	.	8A	.	.	.
.	.	2G	4d	2b-	2g
.	.	.	4e	.	.
.	.	2A	[2f	[2a	2f
=36	=36	=36	=36	=36	=36
0r	0r	1B-	4f]	2a]	1d
.	.	.	4e	.	.
.	.	.	1d	2g	.
.	.	2A	.	1a	2e
.	.	2A	2c#	.	2e
=37	=37	=37	=37	=37	=37
2r	2r	1D	1d	2r	2f
2.D	2.A	.	.	2.f	2.a
.	.	2r	2r	.	.
4D	4A	.	.	4f	4a
2D	2A	[2D	[2d	2f	2a
=38	=38	=38	=38	=38	=38
0GG	0B-	4D]	4d]	0g	0dd
.	.	4D	4d	.	.
.	.	2D	2d	.	.
.	.	1G	1d	.	.
=39	=39	=39	=39	=39	=39
1D	2A	2F	2d	0a	1dd
.	1d	1D	1f	.	.
1r	.	.	.	.	2r
.	2d	2D	2f	.	[2a
=40	=40	=40	=40	=40	=40
0r	2d	2D	2f	0r	2a]
.	2c#	2A	2e	.	2a
.	4d	2D	4f	.	2a
.	4c	.	4e	.	.
.	2B-	[2d	2d	.	2g
=41	=41	=41	=41	=41	=41
1r	1A	2d]	1e	1r	1a
.	.	2c#	.	.	.
[1GG	[1G	2.d	[1d	2.g	[1b-
.	.	4c	.	4a	.
=42	=42	=42	=42	=42	=42
1GG]	1G]	4B-	1d]	4b-	1b-]
.	.	4A	.	4cc	.
.	.	1G	.	2.dd	.
1D	2A	.	1d	.	1a
.	.	.	.	4cc	.
.	[2d	2F#	.	2a	.
=43	=43	=43	=43	=43	=43
2.GG	4d]	1G	2.B-	2b-	2.dd
.	4c	.	.	.	.
.	2.B-	.	.	2.dd	.
4AA	.	.	4c	.	4cc
1BB-	.	1F	4d	.	4b-
.	4c	.	4e	4cc	4a
.	2d	.	4f	[2b-	2b-
.	.	.	4g	.	.
=44	=44	=44	=44	=44	=44
0FF	0c	[0F	0f	2b-]	0cc
.	.	.	.	4a	.
.	.	.	.	4g	.
.	.	.	.	1a	.
=45	=45	=45	=45	=45	=45
0BB-	0B-	0F]	1f	1b-	1dd
.	.	.	2r	2r	2r
.	.	.	[2B-	[2dd	[2b-
=46	=46	=46	=46	=46	=46
0r	0r	0r	4B-]	4dd]	4b-]
.	.	.	4B-	4dd	4b-
.	.	.	2B-	2dd	2b-
.	.	.	2c	2cc	2a
.	.	.	2d	2a	2f
=47	=47	=47	=47	=47	=47
0r	2r	0r	4G	1b-	2g
.	.	.	4A	.	.
.	2.d	.	4B-	.	2g
.	.	.	4c	.	.
.	.	.	4d	2.a	4f
.	4d	.	4e	.	4g
.	2d	.	4f	.	4a
.	.	.	4d	4b-	4f
=48	=48	=48	=48	=48	=48
0r	2c	0r	2e	1cc	2g
.	2A	.	2.f	.	2a
.	2B-	.	.	2.f	1d
.	.	.	4e	.	.
.	2B-	.	[2d	.	.
.	.	.	.	4g	.
=49	=49	=49	=49	=49	=49
1r	1A	1r	2d]	1a	1e
.	.	.	2c#	.	.
2r	2D	2r	1d	2f	1d
2BB-	2D	2d	.	2f	.
=50	=50	=50	=50	=50	=50
2C	2E	2c	0r	2e	0r
2D	2F	2A	.	2d	.
1GG	1G	1B-	.	1d	.
=51	=51	=51	=51	=51	=51
2.D	1F	1A	2r	4d	2r
.	.	.	.	4e	.
.	.	.	2A	4f	2dd
4E	.	.	.	4g	.
1F	2r	1r	2A	2a	2cc
.	2F	.	[2d	2a	2a
=52	=52	=52	=52	=52	=52
0r	2G	1r	2d]	2g	2b-
.	2A	.	2c#	2e	1a
.	2D	2r	1d	1f	.
.	[2d	2F	.	.	2a
=53	=53	=53	=53	=53	=53
1r	2d]	2G	1r	1e	2g
.	2c#	2A	.	.	2e
1BB-	2d	4D	2r	1d	1f
.	.	4E	.	.	.
.	2D	4F	2d	.	.
.	.	4G	.	.	.
=54	=54	=54	=54	=54	=54
2C	2E	1A	2c	2r	2e
2D	2F	.	2A	2.d	2a
[1GG	[1G	2.d	2.B-	.	2g
.	.	.	.	4d	.
.	.	.	.	2d	2g
.	.	4c	4c	.	.
=55	=55	=55	=55	=55	=55
0GG]	2G]	2.B-	0d	0g	0b-
.	4F	.	.	.	.
.	4E	4A	.	.	.
.	1D	1G	.	.	.
=56	=56	=56	=56	=56	=56
0D	0D	0A	0d	0f#	0a
=57	=57	=57	=57	=57	=57
0r	0r	0r	1r	1r	0a
.	.	.	1d	1f#	.
=58	=58	=58	=58	=58	=58
0r	0r	0r	1G	1g	1b-
.	.	.	2d	2f#	2a
.	.	.	2d	2a	2f#
=59	=59	=59	=59	=59	=59
0r	0r	0r	2B-	2b-	2g
.	.	.	2A	2cc	2a
.	.	.	4G	[1dd	2.b-
.	.	.	4A	.	.
.	.	.	4B-	.	.
.	.	.	4c	.	4a
=60	=60	=60	=60	=60	=60
0r	0r	0r	4d	2dd]	4f
.	.	.	4e	.	4g
.	.	.	2.f	4cc	2a
.	.	.	.	4b-	.
.	.	.	.	1a	4d
.	.	.	4e	.	4e
.	.	.	[2d	.	4f
.	.	.	.	.	4d
=61	=61	=61	=61	=61	=61
1r	1r	0A	2d]	1a	1e
.	.	.	2c#	.	.
1D	1F#	.	[1d	2r	1d
.	.	.	.	2a	.
=62	=62	=62	=62	=62	=62
1GG	1G	1B-	1d]	1g	0r
2D	2F#	2A	2r	2a	.
2D	2A	2F#	[2d	2a	.
=63	=63	=63	=63	=63	=63
2BB-	2B-	2G	4d]	2dd	0r
.	.	.	4e	.	.
2AA	2c	2A	2f#	2cc	.
4GG	[1d	2.B-	2g	1b-	.
4AA	.	.	.	.	.
4BB-	.	.	2d	.	.
4C	.	4A	.	.	.
=64	=64	=64	=64	=64	=64
4D	2d]	4F	2.f	[0a	0r
4E	.	4G	.	.	.
2.F	4c	2.A	.	.	.
.	4B-	.	4e	.	.
.	1A	.	4c	.	.
4E	.	4G	4d	.	.
2C	.	2E	[2e	.	.
=65	=65	=65	=65	=65	=65
1D	0A	1F	4e]	0a]	0r
.	.	.	4d	.	.
.	.	.	1d	.	.
1AA	.	1E	.	.	.
.	.	.	2c#	.	.
=66	=66	=66	=66	=66	=66
2r	2r	2D	1d	0r	1.f
1BB-	1d	1B-	.	.	.
.	.	.	1r	.	.
2BB-	2d	2B-	.	.	2f
=67	=67	=67	=67	=67	=67
2.F	2.c	2.A	0r	0r	1.f
4D	4d	4B-	.	.	.
2F	2c	2A	.	.	.
2G	2B-	[2G	.	.	2e
=68	=68	=68	=68	=68	=68
1D	1A	2G]	1r	2r	1d
.	.	4F	.	2.a	.
.	.	4E	.	.	.
1D	1A	2F	2r	.	2d
.	.	.	.	4g	.
.	.	2D	[2d	4f	[2a
.	.	.	.	4e	.
=69	=69	=69	=69	=69	=69
0r	0r	1D	2d]	2f	2a]
.	.	.	2A	2f	2a
.	.	1r	2.c	2.e	2.g
.	.	.	4A	4f	4a
=70	=70	=70	=70	=70	=70
0r	0r	0r	2c	2e	2g
.	.	.	2d	1d	2f
.	.	.	1A	.	1e
.	.	.	.	2c#	.
=71	=71	=71	=71	=71	=71
1D	2r	2r	1A	0d	1d
.	2A	2F#	.	.	.
1GG	1B-	1G	1r	.	1r
=72	=72	=72	=72	=72	=72
1D	1A	2F#	1d	2r	1a
.	.	2D	.	2f#	.
1r	1r	1d	1G	1g	1b-
=73	=73	=73	=73	=73	=73
0r	0r	2D	1.d	2f#	2a
.	.	2d	.	2a	2f#
.	.	2B-	.	2b-	2g
.	.	2A	2e	2cc	2a
=74	=74	=74	=74	=74	=74
0r	0r	4G	2g	1.dd	1b-
.	.	4A	.	.	.
.	.	4B-	2g	.	.
.	.	4c	.	.	.
.	.	[1d	[1f	.	1a
.	.	.	.	4cc	.
.	.	.	.	4b-	.
=75	=75	=75	=75	=75	=75
0r	1r	1d]	2f]	2a	2.f
.	.	.	4e	1dd	.
.	.	.	4d	.	4g
.	2r	1A	1e	.	1a
.	[2A	.	.	2cc#	.
=76	=76	=76	=76	=76	=76
1.D	2A]	1r	2f	1dd	2r
.	2A	.	1f	.	1a
.	2.A	2r	.	2r	.
2D	.	[2A	2f	[2dd	2a
.	4G	.	.	.	.
=77	=77	=77	=77	=77	=77
1D	4F	2A]	0f	2dd]	4a
.	4E	.	.	.	4g
.	1D	2A	.	2dd	4f
.	.	.	.	.	4e
[1BB-	.	[1B-	.	[1dd	1d
.	[2d	.	.	.	.
=78	=78	=78	=78	=78	=78
2BB-]	2d]	1B-]	2r	2dd]	1.dd
2BB-	2d	.	1B-	1b-	.
1BB-	1d	1r	.	.	.
.	.	.	2d	2b-	2dd
=79	=79	=79	=79	=79	=79
0r	0r	0r	2.f	2.a	2.cc
.	.	.	4B-	4b-	4dd
.	.	.	2f	2a	2cc
.	.	.	2g	2g	2b-
=80	=80	=80	=80	=80	=80
0r	0r	2r	1.f	0cc	2a
.	.	1F	.	.	2a
.	.	.	.	.	2a
.	.	2A	4e	.	2a
.	.	.	4d	.	.
=81	=81	=81	=81	=81	=81
0r	0r	2.c	2.e	1.cc	2.g
.	.	4F	4f	.	4a
.	.	2c	2e	.	2g
.	.	2d	[2d	2b-	2f
=82	=82	=82	=82	=82	=82
1r	1r	1A	2d]	0a	1e
.	.	.	2c#	.	.
2r	2r	1D	2d	.	2f#
2D	2A	.	2d	.	2f#
=83	=83	=83	=83	=83	=83
1G	1B-	2r	1.d	2r	1g
.	.	2G	.	2g	.
[1D	[1A	1d	.	1f	[1a
.	.	.	2A	.	.
=84	=84	=84	=84	=84	=84
2D]	2A]	1d	0r	2d	2a]
2D	2A	.	.	2f	2d
2C	2c	1r	.	2g	2e
2BB-	2d	.	.	2b-	2f
=85	=85	=85	=85	=85	=85
2.F	4c	0r	2r	0a	1f
.	4B-	.	.	.	.
.	4A	.	2c	.	.
4E	4G	.	.	.	.
1D	2A	.	2d	.	2r
.	2d	.	2f	.	2f
=86	=86	=86	=86	=86	=86
1G	1B-	1r	4e-	2.b-	2g
.	.	.	8d	.	.
.	.	.	8c	.	.
.	.	.	4d	.	2b-
.	.	.	4e	4cc	.
1F	1r	2r	1f	2dd	1a
.	.	2F	.	[2cc	.
=87	=87	=87	=87	=87	=87
0r	0r	2G	1d	4cc]	2.b-
.	.	.	.	4b-	.
.	.	2B-	.	1b-	.
.	.	.	.	.	4cc
.	.	1F	2.f	.	2dd
.	.	.	.	2a	[2cc
.	.	.	4e	.	.
=88	=88	=88	=88	=88	=88
0r	0r	1G	2d	2g	4cc]
.	.	.	.	.	4b-
.	.	.	2B-	2e	1b-
.	.	1F	1c	2.f	.
.	.	.	.	.	2a
.	.	.	.	4e-	.
=89	=89	=89	=89	=89	=89
1.GG	2r	1.G	2B-	1d	2b-
.	1B-	.	1d	.	1g
.	.	.	.	1r	.
2GG	2B-	2G	2d	.	2g
=90	=90	=90	=90	=90	=90
2GG	2B-	2G	2d	0r	2g
2D	2A	2A	2d	.	2f#
1GG	1G	1B-	1d	.	1g
=91	=91	=91	=91	=91	=91
1D	2F	2A	2d	1r	0a
.	1D	1d	1f	.	.
1r	.	.	.	2r	.
.	2D	2d	2f	[2a	.
=92	=92	=92	=92	=92	=92
0r	2D	2d	2f	2a]	0r
.	2A	2c#	2e	2a	.
.	2D	4d	4f	2a	.
.	.	4c	4e	.	.
.	[2d	2B-	2d	2g	.
=93	=93	=93	=93	=93	=93
1r	2d]	1A	1e	1a	0r
.	2c#	.	.	.	.
2r	2d	2r	2r	1a	.
[2D	[2A	[2F	[2f	.	.
=94	=94	=94	=94	=94	=94
2D]	2A]	2F]	2f]	0r	0r
2D	2B	2F	2f	.	.
1C	4c	2G	1e	.	.
.	4B-	.	.	.	.
.	4A	2c	.	.	.
.	4G	.	.	.	.
=95	=95	=95	=95	=95	=95
1D	2F	2B-	1f	0r	0r
.	2F	2.A	.	.	.
2C	2G	.	2e-	.	.
.	.	4G	.	.	.
2BB-	2G	[2G	2d	.	.
=96	=96	=96	=96	=96	=96
0AA	0A	2G]	1c	1r	1r
.	.	4F	.	.	.
.	.	4E	.	.	.
.	.	2F#	2c	2r	1a
.	.	2F#	2c	2a	.
=97	=97	=97	=97	=97	=97
1GG	1D	1G	2B-	2.dd	2.b-
.	.	.	2G	.	.
.	.	.	.	4cc	4a
2r	2r	2r	2G	2b-	2g
2D	2D	2A	2d	2a	2f#
=98	=98	=98	=98	=98	=98
2GG	2D	2.B-	1d	1g	1g
2GG	2d	.	.	.	.
.	.	4A	.	.	.
2GG	2B-	2G	2r	2r	1dd
2D	2A	2F#	[2d	2a	.
=99	=99	=99	=99	=99	=99
1GG	1G	1G	2d]	1b-	1dd
.	.	.	2G	.	.
1r	1r	1r	2B-	2b-	2dd
.	.	.	2f	2a	2cc
=100	=100	=100	=100	=100	=100
2r	2r	2r	2g	2g	2b-
2D	2A	1D	2d	2f#	2a
1GG	1B-	.	1d	1g	1g
.	.	2d	.	.	.
=101	=101	=101	=101	=101	=101
2BB-	2B-	2d	0r	2r	1f
2F	2A	2c	.	2a	.
2G	2G	2B-	.	2dd	2.d
2D	2F#	2A	.	2dd	.
.	.	.	.	.	4d
=102	=102	=102	=102	=102	=102
1GG	1G	1B	1r	1dd	1d
[1C	2.E	[1c	[1e	[1cc	2r
.	.	.	.	.	4c
.	4F	.	.	.	4d
=103	=103	=103	=103	=103	=103
1C]	1G	1c]	1e]	1cc]	4e
.	.	.	.	.	4f
.	.	.	.	.	2g
1FF	2.F	2.A	2f	1cc	1a
.	.	.	[2f	.	.
.	4E	4G	.	.	.
=104	=104	=104	=104	=104	=104
1.BB-	0D	2F	4f]	1.dd	2.b-
.	.	.	4e-	.	.
.	.	1B-	4d	.	.
.	.	.	4c	.	4cc
.	.	.	[1B-	.	[1dd
2AA	.	2c	.	2cc	.
=105	=105	=105	=105	=105	=105
0GG	0G	1d	2B-]	2b-	2dd]
.	.	.	2c	2a	2cc
.	.	[1D	1d	1g	1b-
=106	=106	=106	=106	=106	=106
1D	2A	2D]	2d	2f	1a
.	2F	2d	2f	2a	.
1r	2F	2c	2f	2a	1r
.	2F	2d	2f	2a	.
=107	=107	=107	=107	=107	=107
1r	2G	2d	2e	2g	1r
.	2A	2c#	2e	2e	.
2r	2D	1d	2d	2.f	2r
2BB-	2B-	.	2f	.	2dd
.	.	.	.	4e	.
=108	=108	=108	=108	=108	=108
2BB-	2B-	1r	2f	2d	2dd
2BB-	2B-	.	2d	1g	2dd
2C	2A	2r	2e-	.	2cc
2D	2A	2d	2d	2f#	2a
=109	=109	=109	=109	=109	=109
2GG	1G	2.B-	1d	2g	2b-
2GG	.	.	.	2b-	2g
.	.	4A	.	.	.
2GG	2r	2G	2r	2b-	2g
2GG	2D	2G	2d	2b-	2g
=110	=110	=110	=110	=110	=110
0D	2D	1A	2d	2a	2.f
.	2D	.	2d	2.a	.
.	.	.	.	.	4g
.	1A	2.d	[1f	.	1a
.	.	.	.	4g	.
.	.	.	.	4f	.
.	.	4c	.	4e	.
=111	=111	=111	=111	=111	=111
0r	0r	4B-	2f]	2d	2.dd
.	.	4A	.	.	.
.	.	2G	2g	2d	.
.	.	.	.	.	4cc
.	.	2G	4g	2.g	4b-
.	.	.	4f	.	4a
.	.	[2c	4e	.	2g
.	.	.	4d	4f	.
=112	=112	=112	=112	=112	=112
0r	0r	4c]	2.c	4e	2g
.	.	4B-	.	4d	.
.	.	4A	.	2c	2.cc
.	.	4G	4B-	.	.
.	.	[1F	4A	2c	.
.	.	.	4G	.	4b-
.	.	.	2F	[2cc	4a
.	.	.	.	.	4g
=113	=113	=113	=113	=113	=113
0r	0r	1F]	1f	4cc]	1a
.	.	.	.	4b-	.
.	.	.	.	2a	.
.	.	1G	2e	2g	1b-
.	.	.	[2d	2f	.
=114	=114	=114	=114	=114	=114
1r	2r	1A	2d]	1e	1a
.	2A	.	2c#	.	.
2r	2A	2D	1d	2f#	2a
2D	2A	2A	.	2a	2f#
=115	=115	=115	=115	=115	=115
2D	1D	2A	2r	2a	2f#
2D	.	2A	2d	2a	2f#
1GG	2r	2.G	2d	1b-	[1g
.	[2d	.	2d	.	.
.	.	4A	.	.	.
=116	=116	=116	=116	=116	=116
2r	4d]	1.B-	1G	2.dd	2g]
.	4c	.	.	.	.
2.G	4B-	.	.	.	2d
.	4A	.	.	4cc	.
.	2G	.	2.g	4b-	2d
4F	.	.	.	4a	.
4E	2G	[2c	.	2g	[2e
4D	.	.	4f	.	.
=117	=117	=117	=117	=117	=117
2C	2.c	2c]	4e	2g	4e]
.	.	.	4d	.	4f
2C	.	2G	2c	2.cc	2g
.	4B-	.	.	.	.
2.F	4A	[1A	2c	.	1f
.	4G	.	.	4b-	.
.	4F	.	[2f	4a	.
4E-	4G	.	.	4g	.
=118	=118	=118	=118	=118	=118
4D	2A	2A]	4f]	1f	2r
4C	.	.	4e-	.	.
4BB-	2D	2B-	4d	.	2.dd
4AA	.	.	4c	.	.
[1GG	[1G	2.d	2B-	2g	.
.	.	.	.	.	4cc
.	.	.	2G	[2dd	4b-
.	.	4c	.	.	4a
=119	=119	=119	=119	=119	=119
1GG]	1G]	4B-	[0d	4dd]	2g
.	.	4A	.	4cc	.
.	.	4G	.	4b-	2g
.	.	4F	.	4a	.
1GG	1D	2G	.	2g	1b-
.	.	2G	.	2g	.
=120	=120	=120	=120	=120	=120
0D	1r	2A	0d]	2f#	2a
.	.	2B-	.	1g	2.dd
.	1D	1A	.	.	.
.	.	.	.	.	4cc
.	.	.	.	2f#	2a
=121	=121	=121	=121	=121	=121
[0GG	[0D	[0G	[0d	[0g	[0b
=122	=122	=122	=122	=122	=122
0GG]	0D]	0G]	0d]	0g]	0b]
==	==	==	==	==	==
*-	*-	*-	*-	*-	*-
!!!CDT: 1525/^1526/-1594/2/2
!!!OCY: Italia
!!!AGN: Mass (Parody)
!!!AST: renaissance, vocal
!!!ASW: Motet (unidentified)
!!!PWK: Masses, Book 1
!!!RNB: Cadence finals: D
!!!YOR: Le Opere Complete, v. 1, p. 182
!!!YOO: Rome, Italy: Fratelli Scalera
!!!END: 1992//
!!!EED: John Miller
!!!YEC: Copyright 2000, John Miller
!!!YEN: United States of America
!!!YEM: Rights to all derivative electronic formats reserved.
!!!YEM: Refer to licensing agreement for further details.
!!!YEM: This file must be accompanied by the licensing agreement.
!!!YEM: A copy of the licensing agreement may be found at http://www.music-cog.ohio-state.edu/HumdrumDatabases/Palestrina/license.txt
!!!EMD: converted to Humdrum by Bret Aarden
